X: 1502
T: Nikrîz Peşrev
C: Mümin Ağa
O: Turkey
F: http://compmusic.upf.edu/node/140
N: nikriz--pesrev--cenber----mumin_aga
N: makam= nikriz
N: form= pesrev
N: usul= cenber = 24/4
M: 24/4
L: 1/16
K: C _7/8B ^3/4f ^c 
Q: 1/4=66
%%MIDI tuningsystem comma53
G2 A2 G2 F2 G4 A4  | B4 A2 B2 A6 c2  | \
w:  1. HANE  |   | 
B2 A2 G2 F2 G4 A2 B2  | A4 B2 c2 d6 c2  | 
w:   |   | 
B2 A2 G2 F2 G2 F2 G2 A2  | B6 .c2 B3A {B}G4  | \
w:   |   | 
A6 B2 A2 B2 A2 G2  | A3G A2 B2 c4 d4  | 
w:   |   | 
c6 d2 B3A G4  | A2 c2 B2 A2 A2 GA G2 F2  | \
w:   |   | 
G6 A2 B8  | A6 c2 B3A G2 F2  | 
w:   |   | 
{G}G6 A2 B2 c2 B2 A2  | B2 c2 d2 e2 d6 e2  | \
w:   |   | 
d4 c2 B2 A6 c2  | B3A G4 A2 G2 A2 B2  | 
w:   |   | 
c4 d4 B2 c2 B2 A2  | G6 c2 d4 z4  | A4 d4 d4 c4  | \
w:   |   |  TESLİM  | 
d2 e2 d2 c2 B2 A2 B4  | 
w:   | 
d6 c2 B4 A4  | B2 A2 B2 c2 d4 z4  | c2 d4 c2 B3A B2 e2  | \
w:   |   |   | 
d2 c2 B2 A2 G8  | 
w:   | 
A4 d4 d4 c4  | d2 e2 d2 c2 B2 A2 B4  | \
w:  TESLİM  |   | 
d6 c2 B4 A4  | B2 A2 B2 c2 d4 z4  | 
w:   |   | 
c2 d4 c2 B3A B2 e2  | d2 c2 B2 A2 G8  | \
w:   |   | 
d2 e2 d2 c2 B4 A2 B2  | c2 d2 c2 B2 A4 B2 c2  | 
w:  2. HANE  |   | 
B4 A4 BA Bc B2 A2  | G6 A2 A4 A2 _2/4B2  | \
w:   |   | 
=c6 _2/4B2 c2 B2 c2 d2  | e2 d2 =c2 _3/4B2 A4 B4  | 
w:   |   | 
A6 G2 A2 G2 A2 B2  | c4 d4 B4 d4  | A4 B2 c2 B2 {e}d2 c2 B2  | \
w:   |   |   | 
A6 c2 B3A G4  | 
w:   | 
G6 =c2 _2/4B2 _3/4d2 c2 B2  | =c6 _3/4d2 c4 _2/4B4  | \
w:   |   | 
A6 _2/4B2 =c2 _3/4d2 c2 B2  | A4 _2/4B2 =c2 B2 _3/4d2 c2 B2  | 
w:   |   | 
A6 c2 B2 A2 G2 ^F2  | G2 ^F2 G2 A2 G4 A2 _2/4B2  | \
w:   |   | 
=c6 _2/4B2 c2 B2 c2 d2  | c2 d2 c2 _1/4B2 c4 d4  | 
w:   |   | 
A4 d4 d4 c4  | d2 e2 d2 c2 B2 A2 B4  | \
w:  TESLİM  |   | 
d6 c2 B4 A4  | B2 A2 B2 c2 d4 z4  | 
w:   |   | 
c2 d4 c2 B3A B2 e2  | d2 c2 B2 A2 G8  | \
w:   |   | 
A4 d4 d4 c4  | d2 e2 d2 c2 B2 A2 B4  | 
w:  TESLİM  |   | 
d6 c2 B4 A4  | B2 A2 B2 c2 d4 z4  | c2 d4 c2 B3A B2 e2  | \
w:   |   |   | 
d2 c2 B2 A2 G8  | 
w:   | 
|


